X:1
T: Captain McBean's Reel
C:
R:Reel
Q: 232
K:Gm
M:4/4
L:1/8
|:d|Bc1/2d1/2 Gd DG dB|AB1/2c1/2 Fc AF cA|Bc1/2d1/2 Gd DG dB|A1/2B1/2c D^F G2 Gd|
Bc1/2d1/2 Gd DG dB|AB1/2c1/2 Fc AF cA|Bc1/2d1/2 Gd DG dB|A1/2B1/2c D^F G2 GA|
B3f dB fd|cd cB AB cA|Gg ga ba g^f|g1/2a1/2b a^f g2 ga|
b2 fd Bd fd|cd cB AB cA|Gg ^fa gd ce|dB cA G2 G:|
